www/assets/icons/temple_buddhist.svg

<svg xmlns="http://www.w3.org/2000/svg" width="24" height="24" viewBox="0 0 24 24" fill='currentColor'><path d="M21 9.52c0 1.09-.89 1.98-1.98 1.98H4.98C3.89 11.5 3 10.61 3 9.52H1c0 1.86 1.28 3.4 3 3.84v9.14h6v-3c0-1.1.9-2 2-2s2 .9 2 2v3h6v-9.14c.55-.14 3-1.04 3-3.86z"/><path d="M6 9.36v1.14h12V9.36c.55-.14 3-1.04 3-3.86l-2 .02c0 1.09-.89 1.98-1.98 1.98H6.98C5.89 7.5 5 6.61 5 5.52H3c0 1.85 1.28 3.4 3 3.84"/><path d="m12 1.5-3.75 5h7.5z"/></svg>

<svg width="24" height="24" viewBox="0 0 24 24" xmlns="http://www.w3.org/2000/svg" fill='currentColor'><path d="M21 9.52C21 10.61 20.11 11.5 19.02 11.5H4.98C3.89 11.5 3 10.61 3 9.52H1C1 11.38 2.28 12.92 4 13.36V22.5H10V19.5C10 18.4 10.9 17.5 12 17.5C13.1 17.5 14 18.4 14 19.5V22.5H20V13.36C20.55 13.22 23 12.32 23 9.5L21 9.52Z"/><path d="M6 9.36V10.5H18V9.36C18.55 9.22 21 8.32 21 5.5L19 5.52C19 6.61 18.11 7.5 17.02 7.5H6.98C5.89 7.5 5 6.61 5 5.52H3C3 7.37 4.28 8.92 6 9.36Z"/><path d="M12 1.5L8.25 6.5H15.75L12 1.5Z"/></svg>
